images/icons/letter.svg

<svg width="16" height="16" viewBox="0 0 16 16" fill="none" xmlns="http://www.w3.org/2000/svg">
<path d="M2.5 2C1.67578 2 1 2.67578 1 3.5V11.5C1 12.3242 1.67578 13 2.5 13H13.5C14.3242 13 15 12.3242 15 11.5V3.5C15 2.67578 14.3242 2 13.5 2H2.5ZM2.5 3H13.5C13.5352 3 13.5625 3.01172 13.5938 3.01953L8 6.89062L2.40625 3.01953C2.4375 3.01172 2.46484 3 2.5 3ZM2 3.95312L8 8.10938L14 3.95312V11.5C14 11.7812 13.7812 12 13.5 12H2.5C2.21875 12 2 11.7812 2 11.5V3.95312Z" fill="#E4B564"/>
</svg>

<svg width="16" height="16" fill="none" xmlns="http://www.w3.org/2000/svg"><path d="M2.5 2C1.676 2 1 2.676 1 3.5v8c0 .824.676 1.5 1.5 1.5h11c.824 0 1.5-.676 1.5-1.5v-8c0-.824-.676-1.5-1.5-1.5h-11zm0 1h11c.035 0 .063.012.094.02L8 6.89 2.406 3.02c.031-.008.059-.02.094-.02zm-.5.953L8 8.11l6-4.156V11.5c0 .281-.219.5-.5.5h-11a.494.494 0 01-.5-.5V3.953z" fill="#E4B564"/></svg>
